img/2.svg

<svg width="162" height="213" viewBox="0 0 162 213" fill="none" xmlns="http://www.w3.org/2000/svg">
<path d="M8.19602 210H5.19602V213H8.19602V210ZM158.935 210V213H161.935V210H158.935ZM158.935 170.327H161.935V167.327H158.935V170.327ZM79.5881 170.327H76.5881V173.327H79.5881V170.327ZM79.5881 169.034L77.5718 166.813L76.5881 167.706V169.034H79.5881ZM104.347 146.562L102.38 144.297L102.355 144.319L102.33 144.341L104.347 146.562ZM155.057 68.3097L158.057 68.2987L158.057 68.2853L155.057 68.3097ZM3.92045 70.9943L0.920464 71.0015L0.927641 73.9943H3.92045V70.9943ZM50.6534 70.9943V73.9943H53.6696L53.6534 70.9782L50.6534 70.9943ZM82.4716 109.574L84.4477 111.831L84.4682 111.813L84.4883 111.795L82.4716 109.574ZM8.19602 174.602L6.21987 172.345L5.19602 173.241V174.602H8.19602ZM8.19602 213H158.935V207H8.19602V213ZM161.935 210V170.327H155.935V210H161.935ZM158.935 167.327H79.5881V173.327H158.935V167.327ZM82.5881 170.327V169.034H76.5881V170.327H82.5881ZM81.6043 171.256L106.363 148.784L102.33 144.341L77.5718 166.813L81.6043 171.256ZM106.313 148.828C142.432 117.485 158.162 97.0023 158.057 68.2987L152.057 68.3206C152.151 94.1056 138.449 112.998 102.38 144.297L106.313 148.828ZM158.057 68.2853C157.901 49.1387 150.411 32.1386 136.799 19.9507C123.203 7.77732 103.705 0.579536 79.7869 0.579536V6.57954C102.503 6.57954 120.49 13.4016 132.796 24.4207C145.087 35.4253 151.914 50.7902 152.057 68.334L158.057 68.2853ZM79.7869 0.579536C56.7057 0.579536 36.9597 7.23173 22.9508 19.4798C8.89894 31.7653 0.86883 49.4702 0.920464 71.0015L6.92045 70.9871C6.87265 51.0554 14.2545 35.0528 26.9 23.9968C39.5886 12.9032 57.8255 6.57954 79.7869 6.57954V0.579536ZM3.92045 73.9943H50.6534V67.9943H3.92045V73.9943ZM53.6534 70.9782C53.6073 62.4076 56.3553 55.9868 60.8015 51.7021C65.2676 47.3983 71.7485 44.9602 79.6875 44.9602V38.9602C70.5242 38.9602 62.4384 41.7921 56.6381 47.3817C50.818 52.9905 47.6001 61.0867 47.6535 71.0104L53.6534 70.9782ZM79.6875 44.9602C87.3304 44.9602 93.8353 47.3276 98.3908 51.4145C102.911 55.4694 105.722 61.3989 105.722 69.0057H111.722C111.722 59.8085 108.268 52.2152 102.398 46.9484C96.5624 41.7136 88.5503 38.9602 79.6875 38.9602V44.9602ZM105.722 69.0057C105.722 82.7013 96.8242 92.4899 80.4549 107.353L84.4883 111.795C100.534 97.226 111.722 85.7362 111.722 69.0057H105.722ZM80.4954 107.317L6.21987 172.345L10.1722 176.859L84.4477 111.831L80.4954 107.317ZM5.19602 174.602V210H11.196V174.602H5.19602Z" fill="url(#paint0_linear)"/>
<defs>
<linearGradient id="paint0_linear" x1="88" y1="-59" x2="88" y2="337" gradientUnits="userSpaceOnUse">
<stop stop-color="#00D6EF"/>
<stop offset="0.328125" stop-color="#810BFF"/>
<stop offset="0.677083" stop-color="#FF0B9D"/>
<stop offset="1" stop-color="#A60636"/>
</linearGradient>
</defs>
</svg>

<svg width="162" height="213" viewBox="0 0 162 213" fill="none" xmlns="http://www.w3.org/2000/svg">
    <path d="M8.196 210h-3v3h3v-3zm150.739 0v3h3v-3h-3zm0-39.673h3v-3h-3v3zm-79.347 0h-3v3h3v-3zm0-1.293l-2.016-2.221-.984.893v1.328h3zm24.759-22.472l-1.967-2.265-.025.022-.025.022 2.017 2.221zm50.71-78.252l3-.011v-.014l-3 .025zM3.92 70.994l-3 .007.008 2.993H3.92v-3zm46.733 0v3h3.017l-.017-3.016-3 .016zm31.819 38.58l1.976 2.257.02-.018.02-.018-2.016-2.221zM8.196 174.602l-1.976-2.257-1.024.896v1.361h3zm0 38.398h150.739v-6H8.196v6zm153.739-3v-39.673h-6V210h6zm-3-42.673H79.588v6h79.347v-6zm-76.347 3v-1.293h-6v1.293h6zm-.984.929l24.759-22.472-4.033-4.443-24.758 22.472 4.032 4.443zm24.709-22.428c36.119-31.343 51.849-51.826 51.744-80.53l-6 .023c.094 25.785-13.608 44.677-49.677 75.976l3.933 4.531zm51.744-80.543c-.156-19.146-7.646-36.146-21.258-48.334C123.203 7.777 103.705.58 79.787.58v6c22.716 0 40.703 6.822 53.009 17.84 12.291 11.005 19.118 26.37 19.261 43.914l6-.049zM79.787.58C56.706.58 36.96 7.232 22.95 19.48 8.899 31.765.869 49.47.92 71l6-.014c-.048-19.932 7.333-35.934 19.979-46.99C39.589 12.903 57.825 6.58 79.787 6.58v-6zM3.92 73.994h46.733v-6H3.92v6zm49.733-3.016c-.046-8.57 2.702-14.991 7.148-19.276 4.467-4.304 10.948-6.742 18.886-6.742v-6c-9.163 0-17.249 2.832-23.049 8.422-5.82 5.608-9.038 13.705-8.984 23.628l6-.032zM79.688 44.96c7.642 0 14.147 2.368 18.703 6.454 4.52 4.055 7.331 9.985 7.331 17.592h6c0-9.197-3.454-16.79-9.324-22.058-5.836-5.234-13.848-7.988-22.71-7.988v6zm26.034 24.046c0 13.695-8.898 23.484-25.267 38.347l4.033 4.442c16.046-14.569 27.234-26.059 27.234-42.79h-6zm-25.227 38.311L6.22 172.345l3.952 4.514 74.276-65.028-3.953-4.514zM5.196 174.602V210h6v-35.398h-6z" fill="url(#a)"/>
    <defs>
        <linearGradient id="a" x1="88" y1="-59" x2="88" y2="337" gradientUnits="userSpaceOnUse">
            <stop stop-color="#00D6EF"/>
            <stop offset=".328" stop-color="#810BFF"/>
            <stop offset=".677" stop-color="#FF0B9D"/>
            <stop offset="1" stop-color="#A60636"/>
        </linearGradient>
    </defs>
</svg>
